packages/icons/brands/EVMChains.svg

<svg width="45" height="18" viewBox="0 0 45 18" xmlns="http://www.w3.org/2000/svg">
<g>
        <path
            d="M9 18C13.9706 18 18 13.9706 18 9C18 4.02944 13.9706 0 9 0C4.02944 0 0 4.02944 0 9C0 13.9706 4.02944 18 9 18Z"
            fill="#627EEA"
        />
        <path
            d="M8.99817 4.20312L8.93262 4.42191V10.7702L8.99817 10.8345L11.9974 9.09265L8.99817 4.20312Z"
            fill="#C0CBF6"
        />
        <path d="M8.99937 4.20312L6 9.09265L8.99937 10.8345V7.75321V4.20312Z" fill="white" />
        <path d="M8.99887 11.3894L8.96191 11.4336V13.695L8.99887 13.801L12 9.64844L8.99887 11.3894Z" fill="#C0CBF6" />
        <path d="M8.99937 13.801V11.3894L6 9.64844L8.99937 13.801Z" fill="white" />
        <path d="M8.99854 10.8313L11.9978 9.08944L8.99854 7.75V10.8313Z" fill="#8197EE" />
        <path d="M6 9.08944L8.99937 10.8313V7.75L6 9.08944Z" fill="#C0CBF6" />
        <circle cx="18" cy="9" r="9" fill="#212936" />
        <path
            d="M17.3192 1.69304L11.9947 4.76841C11.7922 4.88528 11.6241 5.05339 11.5073 5.25584C11.3905 5.45828 11.329 5.68792 11.3291 5.92167L11.3324 12.0792C11.3326 12.3125 11.3941 12.5418 11.5108 12.7439C11.6275 12.946 11.7953 13.1139 11.9973 13.2307L17.328 16.3122C17.5304 16.4291 17.7599 16.4906 17.9936 16.4906C18.2272 16.4906 18.4568 16.4291 18.6591 16.3122L23.9836 13.2378C24.1861 13.1209 24.3541 12.9528 24.471 12.7504C24.5878 12.5479 24.6493 12.3183 24.6492 12.0845L24.6459 5.92706C24.6457 5.6937 24.5842 5.46448 24.4675 5.26239C24.3508 5.0603 24.183 4.89244 23.981 4.77564L18.6503 1.69396C18.4479 1.57713 18.2184 1.51562 17.9847 1.51562C17.7511 1.51562 17.5215 1.57713 17.3192 1.69396V1.69304Z"
            fill="white"
        />
        <path
            d="M15.5617 14.23C15.5699 14.1898 15.5879 14.1524 15.614 14.1208C17.2068 11.4182 18.7998 8.71566 20.3931 6.01324C20.4153 5.97572 20.4358 5.93716 20.4546 5.90354C20.4406 5.8791 20.4247 5.88414 20.4112 5.88414C19.7304 5.88655 19.0497 5.89092 18.3686 5.89011C18.3394 5.88959 18.3109 5.89801 18.2867 5.91421C18.2625 5.93042 18.2439 5.95365 18.2333 5.98077C17.7198 6.82994 17.2056 7.67887 16.6909 8.52758C15.6003 10.3268 14.5097 12.126 13.4189 13.9252C13.4093 13.9411 13.3992 13.9567 13.3906 13.9731C13.3713 14.0103 13.3494 14.0162 13.3103 13.9935C13.141 13.8935 12.9699 13.7968 12.7901 13.6934L17.6441 5.90836C17.6337 5.87669 17.6122 5.88461 17.5957 5.88403C17.3355 5.87623 17.0753 5.86499 16.8154 5.86269C16.4503 5.85187 16.0864 5.91052 15.7431 6.03551C15.4305 6.15126 15.1649 6.36694 14.9874 6.64909C14.1005 8.03238 13.2103 9.41355 12.3166 10.7926C12.3026 10.8144 12.2877 10.8357 12.2733 10.8573C12.2221 10.8573 12.2296 10.8151 12.2249 10.7856C12.2204 10.7411 12.2194 10.6965 12.2217 10.6519C12.2217 9.12659 12.227 7.6013 12.217 6.07613C12.209 5.94471 12.2406 5.81391 12.3078 5.70065C12.3749 5.58739 12.4745 5.49689 12.5937 5.44086C13.7665 4.7722 14.9318 4.08977 16.1009 3.41434C16.6227 3.11288 17.1461 2.8143 17.6641 2.50653C17.7615 2.44116 17.8762 2.40625 17.9935 2.40625C18.1109 2.40625 18.2256 2.44116 18.323 2.50653C19.2754 3.06549 20.2364 3.61148 21.1937 4.16252C21.9158 4.5783 22.6383 4.99336 23.3611 5.4077C23.4128 5.43719 23.4632 5.46874 23.5152 5.49777C23.5997 5.54269 23.6696 5.61086 23.7166 5.69423C23.7636 5.7776 23.7858 5.8727 23.7805 5.96826C23.7819 7.62743 23.7819 9.28659 23.7805 10.9458C23.7839 10.9866 23.7794 11.0277 23.7674 11.0668C23.71 11.1222 23.6893 11.06 23.6684 11.0306C23.5823 10.9095 23.5051 10.782 23.4251 10.6567C22.7846 9.65414 22.142 8.65293 21.4973 7.65305C21.2806 7.31511 21.0612 6.97854 20.8469 6.63922C20.7968 6.56004 20.7878 6.55889 20.7377 6.64392C20.4143 7.19121 20.091 7.73862 19.768 8.28614C19.7502 8.31658 19.7426 8.35184 19.7461 8.38688C19.7497 8.42193 19.7642 8.45495 19.7877 8.48122C20.0541 8.91101 20.3199 9.3411 20.5853 9.7715L21.946 11.9724C22.1296 12.2699 22.3135 12.567 22.4977 12.864C22.5319 12.9038 22.5511 12.9542 22.5521 13.0067C22.5152 13.0799 22.4385 13.1005 22.3745 13.1337C22.2697 13.2095 22.1544 13.2697 22.0323 13.3124C21.9664 13.296 21.9431 13.2366 21.9119 13.1879C21.4906 12.5308 21.0748 11.8704 20.6563 11.2117C20.2258 10.5347 19.7975 9.85515 19.3652 9.1788C19.3098 9.09204 19.3009 9.09147 19.2488 9.1788C18.8728 9.81143 18.5019 10.447 18.1249 11.079C18.1057 11.1086 18.0962 11.1435 18.0978 11.1788C18.0995 11.2141 18.1123 11.248 18.1342 11.2757C18.642 12.0583 19.1381 12.8478 19.6405 13.6343C19.7806 13.8535 19.9217 14.0718 20.0593 14.2926C20.0862 14.3355 20.1229 14.3783 20.0986 14.4364C19.9667 14.539 19.8244 14.6275 19.674 14.7003C19.2047 14.9734 18.7352 15.246 18.2655 15.5183C18.1903 15.5669 18.1026 15.5927 18.013 15.5927C17.9235 15.5927 17.8358 15.5669 17.7606 15.5183C17.0687 15.118 16.3756 14.7196 15.6812 14.3229C15.6333 14.3039 15.5919 14.2717 15.5617 14.23Z"
            fill="#2D374B"
        />
        <path
            d="M23.7471 11.0862C23.7482 11.0452 23.7502 11.0044 23.7502 10.9635C23.7502 9.30812 23.7508 7.65278 23.7518 5.99752C23.7577 5.89713 23.7342 5.79722 23.684 5.71003C23.6339 5.62285 23.5595 5.55218 23.4698 5.50672C21.7315 4.51021 19.9945 3.51145 18.2588 2.51043C18.1806 2.45958 18.0894 2.4324 17.9962 2.43215C17.903 2.43191 17.8116 2.45861 17.7332 2.50905C16.7693 3.06927 15.8041 3.62804 14.8378 4.18536C14.0624 4.63419 13.2871 5.08314 12.5119 5.5322C12.4291 5.57515 12.3604 5.6411 12.3142 5.72211C12.268 5.80313 12.2461 5.89578 12.2513 5.98891C12.2552 7.57731 12.2575 9.16571 12.258 10.7541C12.258 10.7895 12.2437 10.8288 12.2746 10.86C12.0909 11.1657 11.8892 11.4595 11.6959 11.7587C11.599 11.9084 11.5018 12.058 11.4042 12.2072C11.3886 12.2311 11.3705 12.2531 11.3397 12.2957C11.3374 12.2457 11.335 12.218 11.335 12.1905C11.335 10.0958 11.3353 8.00109 11.3361 5.90641C11.331 5.67392 11.39 5.44452 11.5067 5.24337C11.6234 5.04223 11.7932 4.8771 11.9975 4.76611C12.6716 4.36586 13.3546 3.98052 14.0331 3.58738C14.6056 3.25586 15.1762 2.92182 15.7483 2.58972C16.2819 2.27989 16.8101 1.96077 17.3528 1.6678C17.5606 1.55207 17.7957 1.49427 18.0335 1.50045C18.2713 1.50662 18.5031 1.57655 18.7047 1.70292C19.1407 1.95032 19.575 2.20232 20.0098 2.45225C20.4187 2.68764 20.8277 2.92319 21.2366 3.1589C21.6134 3.37585 21.9904 3.59258 22.3675 3.80908C22.7413 4.02382 23.1152 4.23844 23.4892 4.45295C23.6535 4.54739 23.8177 4.64195 23.981 4.73811C24.1613 4.84011 24.3163 4.98139 24.4345 5.15148C24.5527 5.32157 24.6311 5.5161 24.6638 5.72062C24.6715 5.77969 24.6739 5.83933 24.6709 5.89883C24.6709 7.96001 24.6712 10.0212 24.6717 12.0825C24.6728 12.2783 24.6305 12.472 24.5479 12.6496C24.4654 12.8272 24.3445 12.9843 24.1941 13.1098C24.1083 13.1752 24.016 13.2318 23.9187 13.2786C23.3602 13.6044 22.801 13.9288 22.2409 14.252C21.6458 14.5962 21.0504 14.9399 20.4548 15.283C19.8825 15.6146 19.3108 15.9474 18.7397 16.2814C18.5975 16.377 18.4375 16.443 18.2692 16.4754C17.9897 16.53 17.7 16.4931 17.443 16.3703C17.1582 16.2176 16.8807 16.0519 16.5999 15.891C16.2228 15.6747 15.846 15.4579 15.4693 15.2407C15.3628 15.1795 15.2563 15.1186 15.1498 15.0581C15.1106 15.0359 15.0839 15.0133 15.1144 14.9622C15.2554 14.7262 15.3941 14.4887 15.5343 14.2522C15.5392 14.2436 15.5519 14.2396 15.5609 14.2333C15.6916 14.2943 15.8181 14.3639 15.9396 14.4416C16.5549 14.7935 17.1693 15.1471 17.7827 15.5024C17.8535 15.5473 17.9358 15.5706 18.0197 15.5697C18.1035 15.5688 18.1853 15.5437 18.2552 15.4974C18.8378 15.1556 19.4234 14.8186 20.0077 14.48C20.0366 14.4633 20.0662 14.448 20.0956 14.4322C20.1507 14.3618 20.2243 14.3081 20.3081 14.2771C20.836 13.9746 21.3599 13.6662 21.8877 13.3645C21.9317 13.3394 21.9714 13.3006 22.0288 13.3071L22.5459 13.0076C22.5775 12.9415 22.6448 12.9202 22.7013 12.8876C22.9614 12.7374 23.2192 12.583 23.4816 12.4376C23.5576 12.3977 23.6203 12.3366 23.6624 12.2618C23.7046 12.1871 23.7242 12.1017 23.719 12.016C23.7217 11.7528 23.719 11.4894 23.7203 11.2261C23.7111 11.1777 23.7208 11.1277 23.7471 11.0862Z"
            fill="#96BEDC"
        />
        <path
            d="M23.7473 11.0853C23.7487 11.4121 23.7559 11.7394 23.7486 12.0657C23.7506 12.1422 23.7314 12.2177 23.6931 12.284C23.6549 12.3502 23.599 12.4045 23.5318 12.441C23.2027 12.6273 22.8795 12.8242 22.5474 13.0056C22.4154 12.7646 22.2628 12.5351 22.1185 12.301C21.3688 11.0858 20.6182 9.87137 19.8668 8.65759C19.8219 8.58484 19.7806 8.50933 19.7304 8.4406C19.714 8.42087 19.7051 8.39605 19.7051 8.37042C19.7051 8.3448 19.714 8.31998 19.7304 8.30025C19.9097 8.00029 20.0861 7.69861 20.2637 7.39738L20.7564 6.56153C20.7651 6.54165 20.7805 6.52543 20.7999 6.51562C20.8856 6.6477 20.972 6.78093 21.0583 6.91427C21.5767 7.72137 22.0949 8.52846 22.6131 9.33555C22.9644 9.88315 23.3158 10.4308 23.6671 10.9785C23.6864 11.0191 23.7136 11.0554 23.7473 11.0853Z"
            fill="#28A0F0"
        />
        <path
            d="M22.0305 13.3105C21.8165 13.451 21.5895 13.5704 21.369 13.7007C20.9691 13.9358 20.5666 14.1666 20.1653 14.3991C20.1424 14.412 20.1194 14.4242 20.0973 14.4367C20.0922 14.3996 20.0762 14.3648 20.0514 14.3367C19.6941 13.7751 19.3367 13.2137 18.9793 12.6523C18.6856 12.1913 18.391 11.7308 18.0956 11.2707C18.0756 11.2468 18.0641 11.217 18.0626 11.1859C18.0612 11.1548 18.0701 11.1241 18.0879 11.0985C18.4827 10.4336 18.8759 9.76765 19.2674 9.10071C19.2767 9.08534 19.2841 9.06743 19.3072 9.0625C19.3393 9.06973 19.3471 9.10186 19.3624 9.12584C20.0739 10.2465 20.7853 11.3673 21.4968 12.4881C21.6482 12.7267 21.7988 12.9658 21.9511 13.2039C21.9705 13.2442 21.9974 13.2805 22.0303 13.3107L22.0305 13.3105Z"
            fill="#28A0F0"
        />
        <path
            d="M35.7307 11.1784C34.5286 16.0004 29.6446 18.935 24.822 17.7326C20.0015 16.5304 17.0669 11.6462 18.2696 6.82455C19.4712 2.002 24.3551 -0.93281 29.1762 0.269341C33.9985 1.47149 36.9329 6.35625 35.7306 11.1785L35.7307 11.1784H35.7307Z"
            fill="#F3BA2F"
        />
        <path
            fill-rule="evenodd"
            clip-rule="evenodd"
            d="M27.0005 5.71231L24.6698 8.04307L24.6698 8.04297L23.3137 6.68682L27.0005 3L30.6886 6.68792L29.3324 8.04407L27.0005 5.71231ZM22.3562 7.64502L21 9.00141L22.3561 10.3573L23.7123 9.00112L22.3562 7.64502ZM24.6702 9.95911L27.001 12.2897L29.3328 9.95801L30.6897 11.3134L30.689 11.3142L27.001 15.002L23.3142 11.3152L23.3123 11.3133L24.6702 9.95911ZM31.6455 7.64502L30.2893 9.00122L31.6455 10.3573L33.0016 9.00112L31.6455 7.64502Z"
            fill="white"
        />
        <path
            d="M28.3768 9.00112H28.3774L27.0014 7.625L25.9843 8.6418L25.8674 8.7587L25.6264 8.99973L25.6245 9.0016L25.6264 9.00357L27.0014 10.3787L28.3775 9.00256L28.3781 9.0018L28.3769 9.00112"
            fill="white"
        />
        <path
            d="M31.5 7.5C30.675 7.5 30 8.175 30 9C30 9.825 30.675 10.5 31.5 10.5C32.325 10.5 33 9.825 33 9C33 8.175 32.325 7.5 31.5 7.5ZM40.5 7.5C39.675 7.5 39 8.175 39 9C39 9.825 39.675 10.5 40.5 10.5C41.325 10.5 42 9.825 42 9C42 8.175 41.325 7.5 40.5 7.5ZM36 7.5C35.175 7.5 34.5 8.175 34.5 9C34.5 9.825 35.175 10.5 36 10.5C36.825 10.5 37.5 9.825 37.5 9C37.5 8.175 36.825 7.5 36 7.5Z"
            fill="#536471"
        />
    </g>
</svg>

<svg xmlns="http://www.w3.org/2000/svg" width="45" height="18">
    <path fill="#627EEA" d="M9 18A9 9 0 1 0 9 0a9 9 0 0 0 0 18Z"/>
    <path fill="#C0CBF6" d="m8.998 4.203-.065.219v6.348l.065.065 3-1.742-3-4.89Z"/>
    <path fill="#fff" d="m9 4.203-3 4.89 3 1.742V4.203Z"/>
    <path fill="#C0CBF6" d="m8.999 11.39-.037.044v2.261l.037.106L12 9.648 8.999 11.39Z"/>
    <path fill="#fff" d="M9 13.801v-2.412L6 9.65l3 4.15Z"/>
    <path fill="#8197EE" d="m8.999 10.831 2.999-1.742-3-1.339v3.081Z"/>
    <path fill="#C0CBF6" d="m6 9.09 3 1.741V7.75L6 9.09Z"/>
    <circle cx="18" cy="9" r="9" fill="#212936"/>
    <path fill="#fff" d="m17.32 1.693-5.325 3.075a1.33 1.33 0 0 0-.666 1.154l.003 6.157a1.332 1.332 0 0 0 .665 1.152l5.331 3.081a1.33 1.33 0 0 0 1.331 0l5.325-3.074a1.332 1.332 0 0 0 .665-1.153l-.003-6.158a1.331 1.331 0 0 0-.665-1.151l-5.33-3.082a1.331 1.331 0 0 0-1.332 0v-.001Z"/>
    <path fill="#2D374B" d="M15.562 14.23a.25.25 0 0 1 .052-.11l4.78-8.107.06-.11c-.013-.024-.03-.019-.043-.019-.68.003-1.361.007-2.042.006a.142.142 0 0 0-.136.09 73210.03 73210.03 0 0 1-4.814 7.944c-.01.017-.02.033-.028.05-.02.036-.042.042-.08.02-.17-.1-.341-.197-.52-.3l4.853-7.786c-.01-.031-.032-.023-.048-.024-.26-.008-.52-.019-.78-.021a2.885 2.885 0 0 0-1.073.173 1.514 1.514 0 0 0-.756.613c-.886 1.383-1.777 2.765-2.67 4.144l-.044.064c-.05 0-.043-.042-.048-.071a.878.878 0 0 1-.003-.134c0-1.525.005-3.05-.005-4.576a.658.658 0 0 1 .377-.635c1.173-.669 2.338-1.351 3.507-2.027.522-.301 1.045-.6 1.563-.907a.591.591 0 0 1 .659 0c.952.558 1.913 1.104 2.87 1.656l2.168 1.245.154.09a.501.501 0 0 1 .265.47c.002 1.66.002 3.319 0 4.978a.322.322 0 0 1-.013.12c-.057.056-.078-.006-.099-.035-.086-.122-.163-.249-.243-.374a852.258 852.258 0 0 0-1.928-3.004c-.216-.338-.436-.674-.65-1.014-.05-.079-.06-.08-.11.005l-.969 1.642a.167.167 0 0 0 .02.195l.797 1.29 1.361 2.201c.184.298.367.595.552.892.034.04.053.09.054.143-.037.073-.113.094-.177.127-.105.075-.22.136-.343.178-.066-.016-.089-.075-.12-.124-.421-.657-.837-1.318-1.256-1.976-.43-.677-.858-1.357-1.29-2.033-.056-.087-.065-.088-.117 0-.376.632-.747 1.268-1.124 1.9a.17.17 0 0 0 .01.197c.507.782 1.003 1.572 1.505 2.358.14.22.282.438.42.659.026.043.063.085.039.143a2.382 2.382 0 0 1-.425.264l-1.409.818a.465.465 0 0 1-.504 0c-.692-.4-1.385-.798-2.08-1.195a.27.27 0 0 1-.12-.093Z"/>
    <path fill="#96BEDC" d="m23.747 11.086.003-.123c0-1.655 0-3.31.002-4.965a.515.515 0 0 0-.282-.491c-1.738-.997-3.476-1.996-5.211-2.997a.484.484 0 0 0-.526-.001 8046.273 8046.273 0 0 0-5.221 3.023.484.484 0 0 0-.26.457c.003 1.588.005 3.177.006 4.765 0 .036-.014.075.017.106-.184.306-.386.6-.58.899l-.29.448c-.016.024-.034.046-.065.089-.003-.05-.005-.078-.005-.105l.001-6.285a1.266 1.266 0 0 1 .662-1.14c.674-.4 1.357-.785 2.035-1.179.573-.331 1.143-.665 1.715-.997.534-.31 1.062-.63 1.605-.922a1.328 1.328 0 0 1 1.352.035c.436.247.87.5 1.305.75a2409.512 2409.512 0 0 1 2.357 1.356l1.122.644c.165.094.329.189.492.285a1.38 1.38 0 0 1 .683.983c.008.059.01.118.007.178v6.183a1.327 1.327 0 0 1-.477 1.028 1.595 1.595 0 0 1-.275.169 1178.83 1178.83 0 0 1-3.464 2.004c-.572.332-1.144.664-1.715.998a1.275 1.275 0 0 1-.47.194c-.28.055-.57.018-.827-.105-.285-.152-.562-.318-.843-.479a578.863 578.863 0 0 1-1.45-.833c-.04-.022-.066-.045-.036-.096.141-.236.28-.473.42-.71.005-.008.018-.012.027-.019.13.061.257.13.379.209.615.351 1.23.705 1.843 1.06a.434.434 0 0 0 .472-.005c.583-.341 1.168-.678 1.753-1.017.029-.017.058-.032.088-.048a.482.482 0 0 1 .212-.155c.528-.302 1.052-.61 1.58-.912.044-.026.083-.064.14-.058l.518-.3c.032-.066.099-.087.155-.12.26-.15.518-.304.78-.45a.445.445 0 0 0 .238-.421c.003-.263 0-.527.001-.79a.194.194 0 0 1 .027-.14Z"/>
    <path fill="#28A0F0" d="M23.747 11.085c.002.327.009.654.002.98a.415.415 0 0 1-.217.376c-.33.186-.652.383-.985.565-.132-.241-.284-.47-.428-.705-.75-1.215-1.5-2.43-2.252-3.643-.045-.073-.086-.149-.137-.217a.11.11 0 0 1 0-.14c.18-.3.356-.602.534-.904l.492-.835a.093.093 0 0 1 .044-.046l.258.398 1.555 2.422 1.054 1.643c.02.04.047.076.08.106ZM22.03 13.31c-.213.141-.44.26-.661.39-.4.236-.802.467-1.204.7l-.068.037a.19.19 0 0 0-.046-.1l-1.072-1.685-.883-1.381a.143.143 0 0 1-.008-.173c.395-.664.788-1.33 1.18-1.997.009-.016.016-.034.04-.039.031.008.04.04.054.064l2.135 3.362.454.716c.02.04.046.076.08.107Z"/>
    <path fill="#F3BA2F" d="M35.73 11.178a8.999 8.999 0 0 1-17.46-4.353 8.997 8.997 0 1 1 17.46 4.353Z"/>
    <path fill="#fff" fill-rule="evenodd" d="m27 5.712-2.33 2.331-1.356-1.356L27 3l3.689 3.688-1.357 1.356L27 5.712Zm-4.644 1.933L21 9.001l1.356 1.356 1.356-1.356-1.356-1.356Zm2.314 2.314 2.331 2.33 2.332-2.331 1.357 1.355-.001.001-3.688 3.688-3.687-3.687-.002-.002L24.67 9.96Zm6.975-2.314L30.29 9.001l1.356 1.356 1.357-1.356-1.357-1.356Z" clip-rule="evenodd"/>
    <path fill="#fff" d="m28.377 9.001-1.376-1.376-1.017 1.017-.117.117-.24.24-.002.003.001.002 1.375 1.375 1.377-1.376v-.001h-.001"/>
    <path fill="#536471" d="M31.5 7.5c-.825 0-1.5.675-1.5 1.5s.675 1.5 1.5 1.5S33 9.825 33 9s-.675-1.5-1.5-1.5Zm9 0c-.825 0-1.5.675-1.5 1.5s.675 1.5 1.5 1.5S42 9.825 42 9s-.675-1.5-1.5-1.5Zm-4.5 0c-.825 0-1.5.675-1.5 1.5s.675 1.5 1.5 1.5 1.5-.675 1.5-1.5-.675-1.5-1.5-1.5Z"/>
</svg>
